icon_CurrentState.svg

<svg width="86" height="86" viewBox="0 0 86 86" fill="none" xmlns="http://www.w3.org/2000/svg">
<path fill-rule="evenodd" clip-rule="evenodd" d="M29.5903 77.7223C28.1597 77.7223 26.8021 77.6112 25.5243 77.3924L24.7674 77.2501C16.5347 75.5382 11.75 69.2327 11.75 59.6355V26.3646C11.75 25.2049 11.8194 24.0938 11.9583 23.0313C13.1701 13.7084 19.5764 8.27783 29.5903 8.27783H56.4132C67.5104 8.27783 74.1458 14.9445 74.25 26.0973V26.3646V59.6355C74.25 70.9445 67.5972 77.7223 56.4132 77.7223H29.5903ZM29.5903 13.3369C21.0625 13.3369 16.7396 17.7224 16.7396 26.3647V59.6355C16.7396 68.2779 21.0625 72.6633 29.5903 72.6633H56.382C64.9063 72.6633 69.2014 68.2779 69.2014 59.6355V26.3647C69.2014 17.7224 64.9063 13.3369 56.382 13.3369H29.5903ZM57.9515 57.7014C57.9515 56.3125 56.8439 55.1875 55.4759 55.1875H30.4377C29.0696 55.1875 27.9585 56.3125 27.9585 57.7014C27.9585 59.0903 29.0696 60.2153 30.4377 60.2153H55.4759C56.8439 60.2153 57.9515 59.0903 57.9515 57.7014ZM55.4757 40.4688C56.4306 40.3646 57.3646 40.8229 57.875 41.6459C58.3854 42.4757 58.3854 43.5243 57.875 44.3542C57.3646 45.1771 56.4306 45.6354 55.4757 45.5313H30.4375C29.1667 45.3854 28.2049 44.2986 28.2049 43C28.2049 41.7014 29.1667 40.6111 30.4375 40.4688H55.4757ZM42.2256 28.316C42.2256 27.0174 41.2638 25.9271 39.993 25.7847H30.4687C29.1943 25.9271 28.2325 27.0174 28.2325 28.316C28.2325 29.6111 29.1943 30.7014 30.4687 30.8438H39.993C41.2638 30.7014 42.2256 29.6111 42.2256 28.316Z" fill="#181818"/>
<path fill-rule="evenodd" clip-rule="evenodd" d="M29.5903 77.7223C28.1597 77.7223 26.8021 77.6112 25.5243 77.3924L24.7674 77.2501C16.5347 75.5382 11.75 69.2327 11.75 59.6355V26.3646C11.75 25.2049 11.8194 24.0938 11.9583 23.0313C13.1701 13.7084 19.5764 8.27783 29.5903 8.27783H56.4132C67.5104 8.27783 74.1458 14.9445 74.25 26.0973V26.3646V59.6355C74.25 70.9445 67.5972 77.7223 56.4132 77.7223H29.5903ZM29.5903 13.3369C21.0625 13.3369 16.7396 17.7224 16.7396 26.3647V59.6355C16.7396 68.2779 21.0625 72.6633 29.5903 72.6633H56.382C64.9063 72.6633 69.2014 68.2779 69.2014 59.6355V26.3647C69.2014 17.7224 64.9063 13.3369 56.382 13.3369H29.5903ZM57.9515 57.7014C57.9515 56.3125 56.8439 55.1875 55.4759 55.1875H30.4377C29.0696 55.1875 27.9585 56.3125 27.9585 57.7014C27.9585 59.0903 29.0696 60.2153 30.4377 60.2153H55.4759C56.8439 60.2153 57.9515 59.0903 57.9515 57.7014ZM55.4757 40.4688C56.4306 40.3646 57.3646 40.8229 57.875 41.6459C58.3854 42.4757 58.3854 43.5243 57.875 44.3542C57.3646 45.1771 56.4306 45.6354 55.4757 45.5313H30.4375C29.1667 45.3854 28.2049 44.2986 28.2049 43C28.2049 41.7014 29.1667 40.6111 30.4375 40.4688H55.4757ZM42.2256 28.316C42.2256 27.0174 41.2638 25.9271 39.993 25.7847H30.4687C29.1943 25.9271 28.2325 27.0174 28.2325 28.316C28.2325 29.6111 29.1943 30.7014 30.4687 30.8438H39.993C41.2638 30.7014 42.2256 29.6111 42.2256 28.316Z" fill="black" fill-opacity="0.2"/>
</svg>

<?xml version="1.0" encoding="utf-8"?>
<!-- Generator: Adobe Illustrator 25.2.1, SVG Export Plug-In . SVG Version: 6.00 Build 0)  -->
<svg version="1.1" id="Layer_1" xmlns="http://www.w3.org/2000/svg" xmlns:xlink="http://www.w3.org/1999/xlink" x="0px" y="0px"
	 viewBox="0 0 86 86" style="enable-background:new 0 0 86 86;" xml:space="preserve">
<style type="text/css">
	.st0{fill-rule:evenodd;clip-rule:evenodd;fill:#181818;}
	.st1{fill-rule:evenodd;clip-rule:evenodd;fill-opacity:0.2;}
</style>
<path class="st0" d="M29.6,77.7c-1.4,0-2.8-0.1-4.1-0.3l-0.8-0.1c-8.2-1.7-13-8-13-17.6V26.4c0-1.2,0.1-2.3,0.2-3.3
	c1.2-9.3,7.6-14.8,17.6-14.8h26.8c11.1,0,17.7,6.7,17.8,17.8v0.3v33.3c0,11.3-6.7,18.1-17.8,18.1H29.6z M29.6,13.3
	c-8.5,0-12.9,4.4-12.9,13v33.3c0,8.6,4.3,13,12.9,13h26.8c8.5,0,12.8-4.4,12.8-13V26.4c0-8.6-4.3-13-12.8-13H29.6z M58,57.7
	c0-1.4-1.1-2.5-2.5-2.5h-25c-1.4,0-2.5,1.1-2.5,2.5s1.1,2.5,2.5,2.5h25C56.8,60.2,58,59.1,58,57.7z M55.5,40.5
	c1-0.1,1.9,0.4,2.4,1.2c0.5,0.8,0.5,1.9,0,2.7c-0.5,0.8-1.4,1.3-2.4,1.2h-25c-1.3-0.1-2.2-1.2-2.2-2.5s1-2.4,2.2-2.5H55.5z
	 M42.2,28.3c0-1.3-1-2.4-2.2-2.5h-9.5c-1.3,0.1-2.2,1.2-2.2,2.5c0,1.3,1,2.4,2.2,2.5H40C41.3,30.7,42.2,29.6,42.2,28.3z"/>
<path class="st1" d="M29.6,77.7c-1.4,0-2.8-0.1-4.1-0.3l-0.8-0.1c-8.2-1.7-13-8-13-17.6V26.4c0-1.2,0.1-2.3,0.2-3.3
	c1.2-9.3,7.6-14.8,17.6-14.8h26.8c11.1,0,17.7,6.7,17.8,17.8v0.3v33.3c0,11.3-6.7,18.1-17.8,18.1H29.6z M29.6,13.3
	c-8.5,0-12.9,4.4-12.9,13v33.3c0,8.6,4.3,13,12.9,13h26.8c8.5,0,12.8-4.4,12.8-13V26.4c0-8.6-4.3-13-12.8-13H29.6z M58,57.7
	c0-1.4-1.1-2.5-2.5-2.5h-25c-1.4,0-2.5,1.1-2.5,2.5s1.1,2.5,2.5,2.5h25C56.8,60.2,58,59.1,58,57.7z M55.5,40.5
	c1-0.1,1.9,0.4,2.4,1.2c0.5,0.8,0.5,1.9,0,2.7c-0.5,0.8-1.4,1.3-2.4,1.2h-25c-1.3-0.1-2.2-1.2-2.2-2.5s1-2.4,2.2-2.5H55.5z
	 M42.2,28.3c0-1.3-1-2.4-2.2-2.5h-9.5c-1.3,0.1-2.2,1.2-2.2,2.5c0,1.3,1,2.4,2.2,2.5H40C41.3,30.7,42.2,29.6,42.2,28.3z"/>
</svg>
